SVG_Azure_All/Role (AzureAD).svg

<?xml version="1.0" encoding="UTF-8" standalone="no"?>
<!-- Generated by Microsoft Visio, SVG Export Role (AzureAD).svg Page-1 -->

<svg
   xmlns:dc="http://purl.org/dc/elements/1.1/"
   xmlns:cc="http://creativecommons.org/ns#"
   xmlns:rdf="http://www.w3.org/1999/02/22-rdf-syntax-ns#"
   xmlns:svg="http://www.w3.org/2000/svg"
   xmlns="http://www.w3.org/2000/svg"
   xmlns:sodipodi="http://sodipodi.sourceforge.net/DTD/sodipodi-0.dtd"
   xmlns:inkscape="http://www.inkscape.org/namespaces/inkscape"
   width="0.78774631in"
   height="0.7874133in"
   viewBox="0 0 56.717626 56.69374"
   xml:space="preserve"
   class="st6"
   version="1.1"
   id="svg61"
   sodipodi:docname="Role (AzureAD).svg"
   style="font-size:12px;overflow:visible;color-interpolation-filters:sRGB;fill:none;fill-rule:evenodd;stroke-linecap:square;stroke-miterlimit:3"
   inkscape:version="0.92.5 (2060ec1f9f, 2020-04-08)"><metadata
   id="metadata65"><rdf:RDF><cc:Work
       rdf:about=""><dc:format>image/svg+xml</dc:format><dc:type
         rdf:resource="http://purl.org/dc/dcmitype/StillImage" /></cc:Work></rdf:RDF></metadata><sodipodi:namedview
   pagecolor="#ffffff"
   bordercolor="#666666"
   borderopacity="1"
   objecttolerance="10"
   gridtolerance="10"
   guidetolerance="10"
   inkscape:pageopacity="0"
   inkscape:pageshadow="2"
   inkscape:window-width="640"
   inkscape:window-height="480"
   id="namedview63"
   showgrid="false"
   inkscape:zoom="1.4193037"
   inkscape:cx="37.811904"
   inkscape:cy="37.786411"
   inkscape:window-x="0"
   inkscape:window-y="0"
   inkscape:window-maximized="0"
   inkscape:current-layer="svg61" />
	<style
   type="text/css"
   id="style2">
	<![CDATA[
		.st1 {fill:url(#grad0-6);stroke:none;stroke-linecap:butt;stroke-width:34}
		.st2 {fill:#ffffff;stroke:none;stroke-linecap:butt;stroke-width:34}
		.st3 {fill:#32bedd;stroke:none;stroke-linecap:butt;stroke-width:34}
		.st4 {fill:#9cebff;stroke:none;stroke-linecap:butt;stroke-width:34}
		.st5 {fill:#50e6ff;stroke:none;stroke-linecap:butt;stroke-width:34}
		.st6 {fill:none;fill-rule:evenodd;font-size:12px;overflow:visible;stroke-linecap:square;stroke-miterlimit:3}
	]]>
	</style>

	<defs
   id="Patterns_And_Gradients">
		<linearGradient
   id="grad0-6"
   x1="-0.025396503"
   y1="66.915667"
   x2="51.982725"
   y2="66.915667"
   gradientTransform="scale(0.95360246,1.048655)"
   gradientUnits="userSpaceOnUse">
			<stop
   offset="0"
   stop-color="#5e9624"
   stop-opacity="1"
   id="stop4" />
			<stop
   offset="0.06"
   stop-color="#659d25"
   stop-opacity="1"
   id="stop6" />
			<stop
   offset="0.48"
   stop-color="#90c82e"
   stop-opacity="1"
   id="stop8" />
			<stop
   offset="0.805"
   stop-color="#aae234"
   stop-opacity="1"
   id="stop10" />
			<stop
   offset="1"
   stop-color="#b4ec36"
   stop-opacity="1"
   id="stop12" />
		</linearGradient>
	</defs>
	<g
   id="g59"
   transform="translate(-33.999181,-34.00056)">
		<title
   id="title16">Page-1</title>
		<g
   id="group1851-1"
   transform="translate(34.0233,-34.0157)">
			<title
   id="title18">Role (AzureAD)</title>
			<g
   id="group1852-2">
				<title
   id="title20">Sheet.1852</title>
				<g
   id="shape1853-3"
   transform="translate(0,-2.15519)">
					<title
   id="title22">Sheet.1853</title>
					<path
   d="M 49.55,119.79 C 48.13,108.45 42.56,98.84 32.3,95.73 A 13.8911,13.8786 -180 1 0 17.11,95.61 C 6.77,98.38 1.26,107.07 0,119.82 a 4.43446,4.43049 -180 0 0 3.96,4.87 c 0.14,0 0.29,0.02 0.44,0.02 h 40.74 a 4.41442,4.41047 -180 0 0 4.43,-4.39 4.67488,4.6707 -180 0 0 -0.02,-0.53 z"
   class="st1"
   id="path24"
   inkscape:connector-curvature="0"
   style="fill:url(#grad0-6);stroke:none;stroke-width:34;stroke-linecap:butt" />
				</g>
				<g
   id="shape1854-7"
   transform="translate(17.2837,-11.6767)">
					<title
   id="title27">Sheet.1854</title>
					<path
   d="M 7.53,107.46 A 13.8376,13.8253 0 0 1 0,105.25 l 7.46,19.46 7.4,-19.33 a 13.841,13.8286 0 0 1 -7.33,2.08 z"
   class="st2"
   id="path29"
   inkscape:connector-curvature="0"
   style="fill:#ffffff;stroke:none;stroke-width:34;stroke-linecap:butt" />
				</g>
				<g
   id="shape1855-9"
   transform="translate(44.5282)">
					<title
   id="title32">Sheet.1855</title>
					<path
   d="M 12.16,103.46 V 117.6 L 0,124.71 v -14.16 z"
   class="st3"
   id="path34"
   inkscape:connector-curvature="0"
   style="fill:#32bedd;stroke:none;stroke-width:34;stroke-linecap:butt" />
				</g>
				<g
   id="shape1856-11"
   transform="translate(32.3635,-14.1455)">
					<title
   id="title37">Sheet.1856</title>
					<path
   d="M 24.33,117.61 12.16,124.71 0,117.6 12.16,110.5 Z"
   class="st4"
   id="path39"
   inkscape:connector-curvature="0"
   style="fill:#9cebff;stroke:none;stroke-width:34;stroke-linecap:butt" />
				</g>
				<g
   id="shape1857-13"
   transform="translate(32.3635)">
					<title
   id="title42">Sheet.1857</title>
					<path
   d="m 12.16,110.56 v 14.15 L 0,117.6 v -14.14 z"
   class="st5"
   id="path44"
   inkscape:connector-curvature="0"
   style="fill:#50e6ff;stroke:none;stroke-width:34;stroke-linecap:butt" />
				</g>
				<g
   id="shape1858-15"
   transform="translate(32.3635)">
					<title
   id="title47">Sheet.1858</title>
					<path
   d="m 0,117.6 12.16,-7.05 v 14.16 z"
   class="st4"
   id="path49"
   inkscape:connector-curvature="0"
   style="fill:#9cebff;stroke:none;stroke-width:34;stroke-linecap:butt" />
				</g>
				<g
   id="shape1859-17"
   transform="translate(44.5282)">
					<title
   id="title52">Sheet.1859</title>
					<path
   d="M 12.16,117.6 0,110.55 v 14.16 z"
   class="st5"
   id="path54"
   inkscape:connector-curvature="0"
   style="fill:#50e6ff;stroke:none;stroke-width:34;stroke-linecap:butt" />
				</g>
			</g>
		</g>
	</g>
</svg>

<?xml version="1.0" encoding="UTF-8" standalone="no"?>
<!DOCTYPE svg PUBLIC "-//W3C//DTD SVG 1.1//EN" "http://www.w3.org/Graphics/SVG/1.1/DTD/svg11.dtd">
<!-- Generated by Microsoft Visio, SVG Export Role (AzureAD).svg Page-1 -->
<svg xmlns="http://www.w3.org/2000/svg" xmlns:xlink="http://www.w3.org/1999/xlink" xmlns:ev="http://www.w3.org/2001/xml-events"
		width="1.73217in" height="1.73207in" viewBox="0 0 124.716 124.709" xml:space="preserve" color-interpolation-filters="sRGB"
		class="st6">
	<style type="text/css">
	<![CDATA[
		.st1 {fill:url(#grad0-6);stroke:none;stroke-linecap:butt;stroke-width:34}
		.st2 {fill:#ffffff;stroke:none;stroke-linecap:butt;stroke-width:34}
		.st3 {fill:#32bedd;stroke:none;stroke-linecap:butt;stroke-width:34}
		.st4 {fill:#9cebff;stroke:none;stroke-linecap:butt;stroke-width:34}
		.st5 {fill:#50e6ff;stroke:none;stroke-linecap:butt;stroke-width:34}
		.st6 {fill:none;fill-rule:evenodd;font-size:12px;overflow:visible;stroke-linecap:square;stroke-miterlimit:3}
	]]>
	</style>

	<defs id="Patterns_And_Gradients">
		<linearGradient id="grad0-6" x1="0" y1="0" x2="1" y2="0" gradientTransform="rotate(-90 0.5 0.5)">
			<stop offset="0" stop-color="#5e9624" stop-opacity="1"/>
			<stop offset="0.06" stop-color="#659d25" stop-opacity="1"/>
			<stop offset="0.48" stop-color="#90c82e" stop-opacity="1"/>
			<stop offset="0.805" stop-color="#aae234" stop-opacity="1"/>
			<stop offset="1" stop-color="#b4ec36" stop-opacity="1"/>
		</linearGradient>
	</defs>
	<g>
		<title>Page-1</title>
		<g id="group1836-1" transform="translate(34.0233,-34.0157)">
			<title>Role (AzureAD)</title>
			<g id="group1837-2">
				<title>Sheet.1837</title>
				<g id="shape1838-3" transform="translate(0,-2.15519)">
					<title>Sheet.1838</title>
					<path d="M49.55 119.79 C48.13 108.45 42.56 98.84 32.3 95.73 A13.8911 13.8786 -180 1 0 17.11 95.61 C6.77 98.38
								 1.26 107.07 0 119.82 A4.43446 4.43049 -180 0 0 3.96 124.69 C4.1 124.69 4.25 124.71 4.4 124.71 L45.14
								 124.71 A4.41442 4.41047 -180 0 0 49.57 120.32 A4.67488 4.6707 -180 0 0 49.55 119.79 Z" class="st1"/>
				</g>
				<g id="shape1839-7" transform="translate(17.2837,-11.6767)">
					<title>Sheet.1839</title>
					<path d="M7.53 107.46 A13.8376 13.8253 0 0 1 -0 105.25 L7.46 124.71 L14.86 105.38 A13.841 13.8286 0 0 1 7.53
								 107.46 Z" class="st2"/>
				</g>
				<g id="shape1840-9" transform="translate(44.5282,2.84217E-13)">
					<title>Sheet.1840</title>
					<path d="M12.16 103.46 L12.16 117.6 L0 124.71 L0 110.55 L12.16 103.46 Z" class="st3"/>
				</g>
				<g id="shape1841-11" transform="translate(32.3635,-14.1455)">
					<title>Sheet.1841</title>
					<path d="M24.33 117.61 L12.16 124.71 L0 117.6 L12.16 110.5 L24.33 117.61 Z" class="st4"/>
				</g>
				<g id="shape1842-13" transform="translate(32.3635,0)">
					<title>Sheet.1842</title>
					<path d="M12.16 110.56 L12.16 124.71 L0 117.6 L0 103.46 L12.16 110.56 Z" class="st5"/>
				</g>
				<g id="shape1843-15" transform="translate(32.3635,2.84217E-13)">
					<title>Sheet.1843</title>
					<path d="M0 117.6 L12.16 110.55 L12.16 124.71 L0 117.6 Z" class="st4"/>
				</g>
				<g id="shape1844-17" transform="translate(44.5282,2.84217E-13)">
					<title>Sheet.1844</title>
					<path d="M12.16 117.6 L0 110.55 L0 124.71 L12.16 117.6 Z" class="st5"/>
				</g>
			</g>
		</g>
	</g>
</svg>
